X: 28
T: Den lille hamborger
M: 2/4
L: 1/8
R: polka
K: G
B|:"G"dd d>c |"G"BB B>A| "G"BB e>d | "D7"dc A>B| 
"D7"cc c>B| "D7"AA A>G| "D7"FD EF |1 "G"GG GG:|2 "G"GG Gz ||
|: "D7"F/G/A/B/ cB/A/|"G"GB d| "C"ee/f/ gf/e/ |"G"ed d>B|
"C"cc Ed/c/ | "G"BB dc/B/ | "D7"AA cB/A/ | "G"AG Gz :|
|: "G"d/B/G/B/ d/B/G/B/| "C"ce e2 | "D7"c/A/F/A/ c/A/F/A/| "G"Bd d2| 
"G"d/B/G/B/ d/B/G/B/| "C"ce e2 | "D7"c/A/F/A/ c/A/F/A/| "G"GG Gz:| 

